symbols/web/notification_add/materialsymbolsoutlined/notification_add_wght300grad200_48px.svg

<svg xmlns="http://www.w3.org/2000/svg" height="48" width="48"><path d="M8.05 37.8v-2.95h4.2V20q0-4.1 2.5-7.4 2.5-3.3 6.55-4.15V7q0-1.15.775-1.875Q22.85 4.4 24 4.4t1.925.725Q26.7 5.85 26.7 7v1.45q1.25.25 2.45.825 1.2.575 2.2 1.375l-1.1 1.1-1 1q-1.1-.8-2.475-1.225Q25.4 11.1 24 11.1q-3.75 0-6.3 2.6T15.15 20v14.85H32.9V27.9h2.95v6.95h4.1v2.95ZM24 44.25q-1.65 0-2.775-1.125T20.1 40.35h7.8q0 1.65-1.125 2.775T24 44.25Zm14.15-18.4v-6.4h-6.4V16.5h6.4v-6.4h2.95v6.4h6.4v2.95h-6.4v6.4Zm-14.1-2.9Z"/></svg>

<svg xmlns="http://www.w3.org/2000/svg" height="48" width="48"><path d="M8.05 37.8V34.85H12.25V20Q12.25 15.9 14.75 12.6Q17.25 9.3 21.3 8.45V7Q21.3 5.85 22.075 5.125Q22.85 4.4 24 4.4Q25.15 4.4 25.925 5.125Q26.7 5.85 26.7 7V8.45Q27.95 8.7 29.15 9.275Q30.35 9.85 31.35 10.65Q30.7 11.3 30.25 11.75Q29.8 12.2 29.25 12.75Q28.15 11.95 26.775 11.525Q25.4 11.1 24 11.1Q20.25 11.1 17.7 13.7Q15.15 16.3 15.15 20V34.85H32.9V27.9Q33.8 27.9 34.375 27.9Q34.95 27.9 35.85 27.9V34.85H39.95V37.8ZM24 44.25Q22.35 44.25 21.225 43.125Q20.1 42 20.1 40.35H27.9Q27.9 42 26.775 43.125Q25.65 44.25 24 44.25ZM38.15 25.85V19.45H31.75V16.5H38.15V10.1H41.1V16.5H47.5V19.45H41.1V25.85ZM24.05 22.95Q24.05 22.95 24.05 22.95Q24.05 22.95 24.05 22.95Q24.05 22.95 24.05 22.95Q24.05 22.95 24.05 22.95Q24.05 22.95 24.05 22.95Q24.05 22.95 24.05 22.95Q24.05 22.95 24.05 22.95Q24.05 22.95 24.05 22.95Z"/></svg>
